src/svg/sort-numerically.svg

<svg version="1.2" baseProfile="tiny" xmlns="http://www.w3.org/2000/svg" width="24" height="24" viewBox="0 0 24 24"><path d="M4 18c-.552 0-1-.448-1-1v-6.382l-.553.276c-.495.248-1.095.046-1.342-.447-.247-.494-.046-1.094.448-1.342l2-1c.31-.155.678-.139.973.044.294.183.474.504.474.851v8c0 .552-.448 1-1 1zM13 18h-5c-.404 0-.769-.244-.924-.617-.155-.374-.069-.804.217-1.09l4-4c.254-.254.394-.591.394-.95 0-.358-.14-.695-.394-.949-.508-.508-1.39-.508-1.9.001-.253.252-.393.589-.393.948 0 .552-.448 1-1 1s-1-.448-1-1c0-.894.348-1.733.98-2.364 1.265-1.263 3.464-1.263 4.727.001.632.631.979 1.471.979 2.363 0 .893-.348 1.733-.979 2.364l-2.293 2.293h2.586c.552 0 1 .448 1 1s-.448 1-1 1zM20.955 12.377c.338-.457.545-1.016.545-1.627 0-1.517-1.234-2.75-2.75-2.75-1.031 0-1.966.569-2.44 1.484-.254.49-.063 1.094.428 1.348.49.254 1.094.062 1.348-.428.128-.249.383-.404.664-.404.414 0 .75.336.75.75s-.336.75-.75.75c-.552 0-1 .448-1 1s.448 1 1 1c.689 0 1.25.561 1.25 1.25s-.561 1.25-1.25 1.25-1.25-.561-1.25-1.25c0-.552-.448-1-1-1s-1 .448-1 1c0 1.792 1.458 3.25 3.25 3.25s3.25-1.458 3.25-3.25c0-.939-.406-1.779-1.045-2.373z"/></svg>

<?xml version="1.0" encoding="iso-8859-1"?>
<!-- Generator: Adobe Illustrator 16.2.1, SVG Export Plug-In . SVG Version: 6.00 Build 0)  -->
<svg version="1.2" baseProfile="tiny" id="Layer_1" xmlns="http://www.w3.org/2000/svg" xmlns:xlink="http://www.w3.org/1999/xlink"
	 x="0px" y="0px" width="24px" height="24px" viewBox="0 0 24 24" xml:space="preserve">
<g>
	<path d="M4,18c-0.552,0-1-0.448-1-1v-6.382l-0.553,0.276c-0.495,0.248-1.095,0.046-1.342-0.447
		C0.858,9.953,1.059,9.353,1.553,9.105l2-1c0.31-0.155,0.678-0.139,0.973,0.044C4.82,8.332,5,8.653,5,9v8C5,17.552,4.552,18,4,18z"
		/>
</g>
<g>
	<path d="M13,18H8c-0.404,0-0.769-0.244-0.924-0.617c-0.155-0.374-0.069-0.804,0.217-1.09l4-4c0.254-0.254,0.394-0.591,0.394-0.95
		c0-0.358-0.14-0.695-0.394-0.949c-0.508-0.508-1.39-0.508-1.9,0.001C9.14,10.647,9,10.984,9,11.343c0,0.552-0.448,1-1,1
		s-1-0.448-1-1c0-0.894,0.348-1.733,0.98-2.364c1.265-1.263,3.464-1.263,4.727,0.001c0.632,0.631,0.979,1.471,0.979,2.363
		c0,0.893-0.348,1.733-0.979,2.364L10.414,16H13c0.552,0,1,0.448,1,1S13.552,18,13,18z"/>
</g>
<path d="M20.955,12.377c0.338-0.457,0.545-1.016,0.545-1.627C21.5,9.233,20.266,8,18.75,8c-1.031,0-1.966,0.569-2.44,1.484
	c-0.254,0.49-0.063,1.094,0.428,1.348c0.49,0.254,1.094,0.062,1.348-0.428C18.214,10.155,18.469,10,18.75,10
	c0.414,0,0.75,0.336,0.75,0.75s-0.336,0.75-0.75,0.75c-0.552,0-1,0.448-1,1s0.448,1,1,1c0.689,0,1.25,0.561,1.25,1.25
	S19.439,16,18.75,16s-1.25-0.561-1.25-1.25c0-0.552-0.448-1-1-1s-1,0.448-1,1c0,1.792,1.458,3.25,3.25,3.25S22,16.542,22,14.75
	C22,13.811,21.594,12.971,20.955,12.377z"/>
</svg>
